resources/icons/20px/data-connection.svg

<svg width="20" height="20" viewBox="0 0 20 20" fill="none" xmlns="http://www.w3.org/2000/svg">
<path d="M2 11.9C2.935 12.574 4.339 13.117 6.023 13.436C5.91731 14.7355 6.17684 16.0386 6.77229 17.1984C7.36775 18.3582 8.27545 19.3286 9.393 20C5.405 19.981 2.162 18.917 2.006 17.6L2 17.5V11.9ZM13 8C16.315 8 19 10.685 19 14C19 17.315 16.315 20 13 20C9.685 20 7 17.315 7 14C7 10.685 9.685 8 13 8ZM14 9L10 15H12.5L12 19L16 13H13.5L14 9ZM17 4.4V8.255C16.0733 7.61018 15.0044 7.19896 13.8845 7.0564C12.7646 6.91384 11.6268 7.04415 10.5681 7.43624C9.50936 7.82833 8.56115 8.47057 7.80423 9.30822C7.04732 10.1459 6.50414 11.1541 6.221 12.247C3.813 11.856 2.124 11.045 2.007 10.105L2 10V4.4C3.525 5.5 6.3 6.25 9.5 6.25C12.7 6.25 15.475 5.5 17 4.4ZM9.5 0C13.637 0 17 1.125 17 2.5C17 3.875 13.637 5 9.5 5C5.35 5 2 3.875 2 2.5C2 1.125 5.35 0 9.5 0Z" fill="black"/>
</svg>

<svg xmlns="http://www.w3.org/2000/svg" viewBox="0 0 20 20">
  <path d="M2 11.9c.935.674 2.339 1.217 4.023 1.536A7 7 0 0 0 9.393 20c-3.988-.019-7.231-1.083-7.387-2.4L2 17.5zM13 8c3.315 0 6 2.685 6 6s-2.685 6-6 6-6-2.685-6-6 2.685-6 6-6m1 1-4 6h2.5l-.5 4 4-6h-2.5zm3-4.6v3.855a7.003 7.003 0 0 0-10.779 3.992c-2.408-.391-4.097-1.202-4.214-2.142L2 10V4.4c1.525 1.1 4.3 1.85 7.5 1.85S15.475 5.5 17 4.4M9.5 0C13.637 0 17 1.125 17 2.5S13.637 5 9.5 5C5.35 5 2 3.875 2 2.5S5.35 0 9.5 0"/>
</svg>
